src/iconfont/glyphs/brush.svg

<svg xmlns="http://www.w3.org/2000/svg" viewBox="0 0 1024 1024"><path fill="currentColor" d="M250 887c-31 0-62-8-93-23-30-15-55-35-74-60 18 0 37-8 56-22 18-14 28-35 28-62 0-34 12-64 36-88 24-25 54-37 89-37 34 0 64 12 88 37 25 24 37 54 37 88 0 46-17 85-49 118-33 33-72 49-118 49m0-83c23 0 43-9 59-25s24-36 24-59c0-12-4-21-12-29s-17-12-29-12q-18 0-30 12c-8 8-12 17-12 29 0 16-2 31-6 44-3 13-9 26-15 38 4 1 7 2 11 2zm240-167L375 522l373-373c8-7 17-11 29-12 11 0 21 4 29 12l57 57c8 8 12 18 12 29s-4 21-12 29z"/></svg>

<?xml version="1.0" encoding="UTF-8" standalone="no"?>
<!DOCTYPE svg PUBLIC "-//W3C//DTD SVG 1.1//EN" "http://www.w3.org/Graphics/SVG/1.1/DTD/svg11.dtd">
<svg width="100%" height="100%" viewBox="0 0 1024 1024" version="1.1" xmlns="http://www.w3.org/2000/svg" xmlns:xlink="http://www.w3.org/1999/xlink" xml:space="preserve" xmlns:serif="http://www.serif.com/" style="fill-rule:evenodd;clip-rule:evenodd;stroke-linejoin:round;stroke-miterlimit:2;">
    <g transform="matrix(1.17174,1.11022e-16,-1.11022e-16,1.17174,-85.8378,-45.0046)">
        <path d="M250,887C219,887 188,879 157,864C127,849 102,829 83,804C101,804 120,796 139,782C157,768 167,747 167,720C167,686 179,656 203,632C227,607 257,595 292,595C326,595 356,607 380,632C405,656 417,686 417,720C417,766 400,805 368,838C335,871 296,887 250,887ZM250,804C273,804 293,795 309,779C325,763 333,743 333,720C333,708 329,699 321,691C313,683 304,679 292,679C280,679 270,683 262,691C254,699 250,708 250,720C250,736 248,751 244,764C241,777 235,790 229,802C233,803 236,804 240,804L250,804ZM490,637L375,522L748,149C756,142 765,138 777,137C788,137 798,141 806,149L863,206C871,214 875,224 875,235C875,246 871,256 863,264L490,637Z"/>
    </g>
</svg>
